icon/lg/square.svg

<?xml version="1.0" encoding="UTF-8" standalone="no"?>
<svg viewBox="0 0 256 256" version="1.1" xmlns="http://www.w3.org/2000/svg" xmlns:xlink="http://www.w3.org/1999/xlink" preserveAspectRatio="xMidYMid" height="1em" width="1em">
  <g fill="#2E3B4E">
    <path d="M212.65112,5.1534007e-15 L42.6694771,5.1534007e-15 C19.1066886,5.1534007e-15 0,19.1008864 0,42.6694771 L0,212.65112 C0,236.219711 19.1066886,255.320597 42.6694771,255.320597 L212.65112,255.320597 C236.219711,255.320597 255.320597,236.219711 255.320597,212.65112 L255.320597,42.6694771 C255.326399,19.1008864 236.225513,0 212.65112,0 L212.65112,5.1534007e-15 Z M208.90289,195.447557 C208.90289,202.885995 202.87439,208.908692 195.441755,208.908692 L59.907853,208.908692 C52.4694155,208.908692 46.4409158,202.885995 46.4409158,195.447557 L46.4409158,59.907853 C46.4409158,52.4694155 52.4694155,46.4409158 59.907853,46.4409158 L195.441755,46.4409158 C202.87439,46.4409158 208.90289,52.4694155 208.90289,59.907853 L208.90289,195.447557 L208.90289,195.447557 Z"/>
    <path d="M100.569764,162.479381 C96.2993353,162.479381 92.8412161,158.998053 92.8412161,154.710217 L92.8412161,100.61038 C92.8412161,96.3225441 96.2993353,92.8412161 100.569764,92.8412161 L154.750833,92.8412161 C159.032866,92.8412161 162.479381,96.3225441 162.479381,100.61038 L162.479381,154.710217 C162.479381,158.998053 159.032866,162.479381 154.750833,162.479381 L100.569764,162.479381 L100.569764,162.479381 Z"/>
  </g>
</svg>

<svg width="256" height="256" xmlns="http://www.w3.org/2000/svg" preserveAspectRatio="xMidYMid"><g fill="#2E3B4E"><path d="M212.651 0H42.67C19.107 0 0 19.1 0 42.67V212.65c0 23.569 19.107 42.67 42.67 42.67H212.65c23.569 0 42.67-19.101 42.67-42.67V42.67C255.326 19.101 236.226 0 212.65 0Zm-3.748 195.448c0 7.438-6.029 13.46-13.461 13.46H59.908c-7.439 0-13.467-6.022-13.467-13.46V59.908c0-7.439 6.028-13.467 13.467-13.467h135.534c7.432 0 13.46 6.028 13.46 13.467v135.54Z"/><path d="M100.57 162.48c-4.27 0-7.729-3.482-7.729-7.77v-54.1c0-4.287 3.458-7.769 7.729-7.769h54.18c4.283 0 7.73 3.482 7.73 7.77v54.1c0 4.287-3.447 7.768-7.73 7.768h-54.18Z"/></g></svg>
